X:1
T:Title
T:「カーストルーム」
T:ZAQ Transcribed by: AsleepSheep Transp Violin: A/C 
T:ようこそ実力至上主義の教室へ
C:Composer
L:1/8
Q:1/4=156
M:4/4
K:A
V:1 treble nm="Violin" snm="Vln."
V:1
 z C.G.G .GFEF- | FE !tenuto!.A2 !tenuto!.G2 !tenuto!.E2 | c2 B2 GFEF- | F=GFE C2 z B, | %4
 C.E z B, CEFE | G2 G2 FEFG- | G2 A G3 AG- | G F2 E FE z C- | CCB,C E3/2C z/ F- | FEEF G2 z F- | %10
 F/E/F/E/ FE G2 B2 | z2 A2 G2 F2 | G4 B3 c- | c8 | z8 | z8 | z8 | z8 | z8 | z8 | z8 | z8 | %22
[K:Db] A2 G2 F3/2D3/2E- | E D2 F2 GFD- | D/ z/ B, DB, DEDB- | BAB F3 z F/G/ | A2 G2 F2 D2 | %27
 D4 _F4 | E6- ED | C4 z3 D | FEDB, D3/2E3/2A, | E2 F D2 z3 | FEDB, D3/2E3/2A, | F2 G2 A2 z2 | %34
 A3/2D3/2E DDCD | A3/2D3/2E D z2 D |[K:Cb] A3/2D3/2E DDEF | G3/2F3/2E C z2 C | D2 E2 F2 G2 | %39
 A2 __B2 c2 z2 ||[K:G]"^Step by Step~ \nSakura Airi best girl" B3/2E3/2 E2 z2 B- | BcBA G2 FG | %42
 A3/2D3/2 D2 d2 c- | cBA B3 z2 | E3/2E3/2 E2 EFG | F2 G2 A2 F2 | A4 AGAB- | B4 z2 GA | %48
 B3/2E3/2 E2 z2 B- | BcBA G2 FG | A3/2D3/2 D2 dAc- | cBA B2 z3/2 G3/2 | F2 GG- G4- | %53
 G2 z B3/2 z/ B AG | %54
[K:F] ^F2 G G3 z"^Changes to F major starting at this b flat\nCouldn't put a key signature change in\nthe middle of a measure, though :/" B- | %55
 B/ z/ B AG F A2 G- | G8 |] %57

